icons/paperclip.svg

<?xml version="1.0" standalone="no"?><!-- Generator: Gravit.io --><svg xmlns="http://www.w3.org/2000/svg" xmlns:xlink="http://www.w3.org/1999/xlink" width="96" height="96"><path d=" M 40.22563965086046 13.845885907083968 L 43.05406677560664 11.017458782337776 C 48.28665695638709 5.784868601557324 55.428435446371225 2.885730798692478 62.85305664882998 2.8150201205738234 C 70.27767785128873 2.885730798692478 77.41945634127285 5.784868601557324 82.6520465220533 11.017458782337773 C 87.88463670283375 16.250048963118225 90.7837745056986 23.39182745310236 90.85448518381725 30.816448655561103 C 90.7837745056986 38.24106985801985 87.88463670283376 45.38284834800398 82.65204652205331 50.61543852878443 L 79.82361939730711 53.44386565353063 L 48.71092102509903 84.55656402573871 L 45.88249390035284 87.3849911504849 C 42.13482796006414 91.13265709077362 37.04365913552099 93.25397743433325 31.740358276621897 93.18326675621458 C 26.437057417722777 93.25397743433325 21.345888593179644 91.13265709077359 17.598222652890946 87.3849911504849 C 13.850556712602248 83.6373252101962 11.729236369042589 78.54615638565306 11.799947047161254 73.24285552675394 C 11.729236369042589 67.93955466785485 13.850556712602234 62.84838584331171 17.598222652890932 59.100719903023 L 20.42664977763713 56.272292778276814 L 47.296707462725934 29.402235093188004 L 50.12513458747212 26.57380796844182 C 52.38787628726907 24.311066268644865 55.428435446371225 23.10898474062774 58.610415961710686 23.038274062509082 C 61.792396477050154 23.108984740627733 64.8329556361523 24.311066268644865 67.09569733594927 26.57380796844182 C 69.35843903574622 28.836549668238774 70.56052056376335 31.877108827340926 70.63123124188199 35.05908934268039 C 70.56052056376335 38.24106985801985 69.35843903574622 41.28162901712201 67.09569733594927 43.54437071691896 L 64.26727021120308 46.372797841665154 L 34.56878540136808 76.07128265150016 C 33.790967942062885 76.84910011080535 32.80101844840172 77.27336417951727 31.74035827662189 77.20265350139863 C 30.679698104842075 77.27336417951727 29.689748611180903 76.84910011080535 28.9119311518757 76.07128265150016 C 28.134113692570494 75.29346519219493 27.709849623858574 74.30351569853377 27.78056030197723 73.24285552675397 C 27.709849623858574 72.18219535497414 28.1341136925705 71.19224586131295 28.9119311518757 70.41442840200776 L 58.61041596171069 40.71594359217277 L 61.438843086456885 37.88751646742658 C 62.21666054576208 37.109699008121375 62.64092461447402 36.11974951446022 62.57021393635536 35.05908934268039 C 62.64092461447402 33.99842917090057 62.21666054576208 33.0084796772394 61.438843086456885 32.2306622179342 C 60.66102562715168 31.45284475862899 59.671076133490516 31.02858068991707 58.61041596171069 31.09929136803573 C 57.54975578993087 31.02858068991707 56.559806296269706 31.452844758629 55.7819888369645 32.2306622179342 L 52.95356171221832 35.05908934268039 L 26.08350402712951 61.9291470277692 L 23.25507690238332 64.75757415251539 C 20.992335202586368 67.02031585231234 19.790253674569236 70.06087501141448 19.719542996450578 73.24285552675394 C 19.79025367456923 76.42483604209343 20.99233520258636 79.46539520119558 23.255076902383315 81.72813690099252 C 25.51781860218027 83.99087860078947 28.558377761282422 85.19296012880662 31.74035827662189 85.26367080692526 C 34.92233879196136 85.19296012880662 37.9628979510635 83.99087860078947 40.22563965086046 81.72813690099252 L 43.05406677560665 78.89970977624634 L 74.16676514781474 47.787011404038246 L 76.99519227256093 44.95858427929205 C 80.74285821284963 41.21091833900335 82.86417855640927 36.11974951446021 82.79346787829061 30.816448655561103 C 82.86417855640927 25.51314779666199 80.74285821284963 20.421978972118858 76.99519227256093 16.674313031830152 C 73.24752633227223 12.926647091541454 68.15635750772908 10.805326747981809 62.85305664882997 10.87603742610046 C 57.54975578993087 10.805326747981812 52.458586965387724 12.926647091541454 48.710921025099026 16.674313031830152 L 45.882493900352834 19.502740156576344 L 11.941368403398556 53.44386565353063 C 11.163550944093359 54.22168311283583 10.173601450432194 54.64594718154776 9.112941278652372 54.5752365034291 C 8.052281106872549 54.64594718154775 7.062331613211377 54.22168311283583 6.284514153906173 53.44386565353063 C 5.5066966946009686 52.66604819422543 5.082432625889048 51.67609870056426 5.153143304007706 50.615438528784445 C 5.082432625889048 49.554778357004615 5.506696694600983 48.56482886334344 6.28451415390618 47.787011404038246 L 40.22563965086046 13.845885907083968 Z " fill="#454545" stroke="none"/><mask id="_mask_s0CuiyXolZwCaw10LvPDWT6rnTUGHizP"><path d=" M 40.22563965086046 13.845885907083968 L 43.05406677560664 11.017458782337776 C 48.28665695638709 5.784868601557324 55.428435446371225 2.885730798692478 62.85305664882998 2.8150201205738234 C 70.27767785128873 2.885730798692478 77.41945634127285 5.784868601557324 82.6520465220533 11.017458782337773 C 87.88463670283375 16.250048963118225 90.7837745056986 23.39182745310236 90.85448518381725 30.816448655561103 C 90.7837745056986 38.24106985801985 87.88463670283376 45.38284834800398 82.65204652205331 50.61543852878443 L 79.82361939730711 53.44386565353063 L 48.71092102509903 84.55656402573871 L 45.88249390035284 87.3849911504849 C 42.13482796006414 91.13265709077362 37.04365913552099 93.25397743433325 31.740358276621897 93.18326675621458 C 26.437057417722777 93.25397743433325 21.345888593179644 91.13265709077359 17.598222652890946 87.3849911504849 C 13.850556712602248 83.6373252101962 11.729236369042589 78.54615638565306 11.799947047161254 73.24285552675394 C 11.729236369042589 67.93955466785485 13.850556712602234 62.84838584331171 17.598222652890932 59.100719903023 L 20.42664977763713 56.272292778276814 L 47.296707462725934 29.402235093188004 L 50.12513458747212 26.57380796844182 C 52.38787628726907 24.311066268644865 55.428435446371225 23.10898474062774 58.610415961710686 23.038274062509082 C 61.792396477050154 23.108984740627733 64.8329556361523 24.311066268644865 67.09569733594927 26.57380796844182 C 69.35843903574622 28.836549668238774 70.56052056376335 31.877108827340926 70.63123124188199 35.05908934268039 C 70.56052056376335 38.24106985801985 69.35843903574622 41.28162901712201 67.09569733594927 43.54437071691896 L 64.26727021120308 46.372797841665154 L 34.56878540136808 76.07128265150016 C 33.790967942062885 76.84910011080535 32.80101844840172 77.27336417951727 31.74035827662189 77.20265350139863 C 30.679698104842075 77.27336417951727 29.689748611180903 76.84910011080535 28.9119311518757 76.07128265150016 C 28.134113692570494 75.29346519219493 27.709849623858574 74.30351569853377 27.78056030197723 73.24285552675397 C 27.709849623858574 72.18219535497414 28.1341136925705 71.19224586131295 28.9119311518757 70.41442840200776 L 58.61041596171069 40.71594359217277 L 61.438843086456885 37.88751646742658 C 62.21666054576208 37.109699008121375 62.64092461447402 36.11974951446022 62.57021393635536 35.05908934268039 C 62.64092461447402 33.99842917090057 62.21666054576208 33.0084796772394 61.438843086456885 32.2306622179342 C 60.66102562715168 31.45284475862899 59.671076133490516 31.02858068991707 58.61041596171069 31.09929136803573 C 57.54975578993087 31.02858068991707 56.559806296269706 31.452844758629 55.7819888369645 32.2306622179342 L 52.95356171221832 35.05908934268039 L 26.08350402712951 61.9291470277692 L 23.25507690238332 64.75757415251539 C 20.992335202586368 67.02031585231234 19.790253674569236 70.06087501141448 19.719542996450578 73.24285552675394 C 19.79025367456923 76.42483604209343 20.99233520258636 79.46539520119558 23.255076902383315 81.72813690099252 C 25.51781860218027 83.99087860078947 28.558377761282422 85.19296012880662 31.74035827662189 85.26367080692526 C 34.92233879196136 85.19296012880662 37.9628979510635 83.99087860078947 40.22563965086046 81.72813690099252 L 43.05406677560665 78.89970977624634 L 74.16676514781474 47.787011404038246 L 76.99519227256093 44.95858427929205 C 80.74285821284963 41.21091833900335 82.86417855640927 36.11974951446021 82.79346787829061 30.816448655561103 C 82.86417855640927 25.51314779666199 80.74285821284963 20.421978972118858 76.99519227256093 16.674313031830152 C 73.24752633227223 12.926647091541454 68.15635750772908 10.805326747981809 62.85305664882997 10.87603742610046 C 57.54975578993087 10.805326747981812 52.458586965387724 12.926647091541454 48.710921025099026 16.674313031830152 L 45.882493900352834 19.502740156576344 L 11.941368403398556 53.44386565353063 C 11.163550944093359 54.22168311283583 10.173601450432194 54.64594718154776 9.112941278652372 54.5752365034291 C 8.052281106872549 54.64594718154775 7.062331613211377 54.22168311283583 6.284514153906173 53.44386565353063 C 5.5066966946009686 52.66604819422543 5.082432625889048 51.67609870056426 5.153143304007706 50.615438528784445 C 5.082432625889048 49.554778357004615 5.506696694600983 48.56482886334344 6.28451415390618 47.787011404038246 L 40.22563965086046 13.845885907083968 Z " fill="white" stroke="none"/></mask><path d=" M 40.22563965086046 13.845885907083968 L 43.05406677560664 11.017458782337776 C 48.28665695638709 5.784868601557324 55.428435446371225 2.885730798692478 62.85305664882998 2.8150201205738234 C 70.27767785128873 2.885730798692478 77.41945634127285 5.784868601557324 82.6520465220533 11.017458782337773 C 87.88463670283375 16.250048963118225 90.7837745056986 23.39182745310236 90.85448518381725 30.816448655561103 C 90.7837745056986 38.24106985801985 87.88463670283376 45.38284834800398 82.65204652205331 50.61543852878443 L 79.82361939730711 53.44386565353063 L 48.71092102509903 84.55656402573871 L 45.88249390035284 87.3849911504849 C 42.13482796006414 91.13265709077362 37.04365913552099 93.25397743433325 31.740358276621897 93.18326675621458 C 26.437057417722777 93.25397743433325 21.345888593179644 91.13265709077359 17.598222652890946 87.3849911504849 C 13.850556712602248 83.6373252101962 11.729236369042589 78.54615638565306 11.799947047161254 73.24285552675394 C 11.729236369042589 67.93955466785485 13.850556712602234 62.84838584331171 17.598222652890932 59.100719903023 L 20.42664977763713 56.272292778276814 L 47.296707462725934 29.402235093188004 L 50.12513458747212 26.57380796844182 C 52.38787628726907 24.311066268644865 55.428435446371225 23.10898474062774 58.610415961710686 23.038274062509082 C 61.792396477050154 23.108984740627733 64.8329556361523 24.311066268644865 67.09569733594927 26.57380796844182 C 69.35843903574622 28.836549668238774 70.56052056376335 31.877108827340926 70.63123124188199 35.05908934268039 C 70.56052056376335 38.24106985801985 69.35843903574622 41.28162901712201 67.09569733594927 43.54437071691896 L 64.26727021120308 46.372797841665154 L 34.56878540136808 76.07128265150016 C 33.790967942062885 76.84910011080535 32.80101844840172 77.27336417951727 31.74035827662189 77.20265350139863 C 30.679698104842075 77.27336417951727 29.689748611180903 76.84910011080535 28.9119311518757 76.07128265150016 C 28.134113692570494 75.29346519219493 27.709849623858574 74.30351569853377 27.78056030197723 73.24285552675397 C 27.709849623858574 72.18219535497414 28.1341136925705 71.19224586131295 28.9119311518757 70.41442840200776 L 58.61041596171069 40.71594359217277 L 61.438843086456885 37.88751646742658 C 62.21666054576208 37.109699008121375 62.64092461447402 36.11974951446022 62.57021393635536 35.05908934268039 C 62.64092461447402 33.99842917090057 62.21666054576208 33.0084796772394 61.438843086456885 32.2306622179342 C 60.66102562715168 31.45284475862899 59.671076133490516 31.02858068991707 58.61041596171069 31.09929136803573 C 57.54975578993087 31.02858068991707 56.559806296269706 31.452844758629 55.7819888369645 32.2306622179342 L 52.95356171221832 35.05908934268039 L 26.08350402712951 61.9291470277692 L 23.25507690238332 64.75757415251539 C 20.992335202586368 67.02031585231234 19.790253674569236 70.06087501141448 19.719542996450578 73.24285552675394 C 19.79025367456923 76.42483604209343 20.99233520258636 79.46539520119558 23.255076902383315 81.72813690099252 C 25.51781860218027 83.99087860078947 28.558377761282422 85.19296012880662 31.74035827662189 85.26367080692526 C 34.92233879196136 85.19296012880662 37.9628979510635 83.99087860078947 40.22563965086046 81.72813690099252 L 43.05406677560665 78.89970977624634 L 74.16676514781474 47.787011404038246 L 76.99519227256093 44.95858427929205 C 80.74285821284963 41.21091833900335 82.86417855640927 36.11974951446021 82.79346787829061 30.816448655561103 C 82.86417855640927 25.51314779666199 80.74285821284963 20.421978972118858 76.99519227256093 16.674313031830152 C 73.24752633227223 12.926647091541454 68.15635750772908 10.805326747981809 62.85305664882997 10.87603742610046 C 57.54975578993087 10.805326747981812 52.458586965387724 12.926647091541454 48.710921025099026 16.674313031830152 L 45.882493900352834 19.502740156576344 L 11.941368403398556 53.44386565353063 C 11.163550944093359 54.22168311283583 10.173601450432194 54.64594718154776 9.112941278652372 54.5752365034291 C 8.052281106872549 54.64594718154775 7.062331613211377 54.22168311283583 6.284514153906173 53.44386565353063 C 5.5066966946009686 52.66604819422543 5.082432625889048 51.67609870056426 5.153143304007706 50.615438528784445 C 5.082432625889048 49.554778357004615 5.506696694600983 48.56482886334344 6.28451415390618 47.787011404038246 L 40.22563965086046 13.845885907083968 Z " fill="none" stroke="none" stroke-width="16" mask="url(#_mask_s0CuiyXolZwCaw10LvPDWT6rnTUGHizP)"/></svg>

<svg xmlns="http://www.w3.org/2000/svg" width="96" height="96"><path d="M40.226 13.846l2.828-2.829c5.233-5.232 12.374-8.131 19.8-8.202 7.424.07 14.565 2.97 19.798 8.202 5.233 5.233 8.132 12.375 8.202 19.8-.07 7.424-2.97 14.566-8.202 19.798l-2.828 2.829L48.71 84.557l-2.829 2.828c-3.747 3.748-8.838 5.869-14.142 5.798-5.303.071-10.394-2.05-14.142-5.798-3.747-3.748-5.869-8.839-5.798-14.142-.07-5.303 2.05-10.395 5.798-14.142l2.829-2.829 26.87-26.87 2.828-2.828c2.263-2.263 5.303-3.465 8.485-3.536 3.182.071 6.223 1.273 8.486 3.536 2.262 2.263 3.465 5.303 3.535 8.485-.07 3.182-1.273 6.223-3.535 8.485l-2.829 2.829L34.57 76.07c-.778.778-1.768 1.202-2.829 1.132-1.06.07-2.05-.354-2.828-1.132-.778-.778-1.202-1.767-1.131-2.828-.071-1.06.353-2.05 1.13-2.829l29.7-29.698 2.828-2.828c.778-.778 1.202-1.768 1.131-2.829.07-1.06-.353-2.05-1.131-2.828s-1.768-1.202-2.829-1.132c-1.06-.07-2.05.354-2.828 1.132l-2.828 2.828-26.87 26.87-2.829 2.829c-2.263 2.262-3.465 5.303-3.535 8.485.07 3.182 1.272 6.222 3.535 8.485 2.263 2.263 5.303 3.465 8.485 3.536 3.182-.071 6.223-1.273 8.486-3.536l2.828-2.828 31.113-31.113 2.828-2.828c3.748-3.748 5.87-8.84 5.798-14.143.071-5.303-2.05-10.394-5.798-14.142-3.747-3.747-8.839-5.869-14.142-5.798-5.303-.07-10.394 2.05-14.142 5.798l-2.829 2.829-33.94 33.94c-.778.779-1.768 1.203-2.83 1.132-1.06.07-2.05-.353-2.827-1.131-.778-.778-1.203-1.768-1.132-2.829-.07-1.06.354-2.05 1.132-2.828l33.94-33.941z" fill="#454545"/></svg>
